dist/svg/object-based/spaces_24.svg

<svg xmlns="http://www.w3.org/2000/svg" viewBox="0 0 24 24"><path d="M1 3h10v8H1zM21 5v4h-6V5h6m2-2H13v8h10V3zM21 15v4h-6v-4h6m2-2H13v8h10v-8zM9 15v4H3v-4h6m2-2H1v8h10v-8z"/></svg>

<?xml version="1.0" encoding="iso-8859-1"?>
<!-- Generator: Adobe Illustrator 20.0.0, SVG Export Plug-In . SVG Version: 6.00 Build 0)  -->
<svg version="1.1" id="Layer_1" xmlns="http://www.w3.org/2000/svg" xmlns:xlink="http://www.w3.org/1999/xlink" x="0px" y="0px"
	 viewBox="0 0 24 24" style="enable-background:new 0 0 24 24;" xml:space="preserve">
<g>
	<g>
		<rect x="1" y="3" width="10" height="8"/>
	</g>
	<g>
		<path d="M21,5v4h-6V5H21 M23,3H13v8h10V3L23,3z"/>
	</g>
	<g>
		<path d="M21,15v4h-6v-4H21 M23,13H13v8h10V13L23,13z"/>
	</g>
	<g>
		<path d="M9,15v4H3v-4H9 M11,13H1v8h10V13L11,13z"/>
	</g>
</g>
</svg>
